X: 30
T: Drunken-man Dance Song (h)
C: Anon.
%%abc-version 2.0
%%abcx-abcm2ps-target-version 5.9.1 (29 Sep 2008)
%%abc-creator hum2abc beta
%%abcx-conversion-date 2020/08/10 20:56:09
%%abc-copyright Electronic Copyright 2000 David Huron
%%abc-edited-by David Huron
%%abcx-initial-encoding-date August 28, 2000
%%humdrum-veritas 2063378583
%%humdrum-veritas-data 3422172026
%%linebreak <none>
%%barnumbers 0
L: 1/16
M: 2/4
Q: 1/4=60
K: F clef=bass
F,2 F, F,C4 | 
B,2> G,2 F,2 F,2 | 
B,2> F,2 G,2 G, z | 
F,2> D,2 C, C, C,2 | 
F,2 F, F,C4 | 
B,2> G,2 F,2 G, F, | 
B,2> F,2G,4 | 
F,2> D,2 C, C, C, z :|]  


